X: 24
T: Irish Invasion
%R: jig
B: "Twenty Four Country Dances for the Year 1799", Thomas Skillern, ed. p.12 #2
F: http://www.vwml.org/browse/browse-collections-dance-tune-books/browse-skillerns1799
Z: 2014 John Chambers <jc:trillian.mit.edu>
M: 6/8
L: 1/8
K: C
G |\
ccc cBc | ddd def | gec BAG | ccc c2G |\
ccc cBc | ddd def | gec BAG | ccc c2 :|
|: e/f/ |\
ggg ece | ddd BGB | ggg ece | ddd d2e/f/ |\
ggg ece | ddd BGB | gec BAG | ccc c2 :|
%%begintext align
%% First and 2d Cu: foot it and change sides, the
%% same back again, lead down the middle up again
%% and Cast off, Hands 6 round.
%%endtext
